src/images/icons/input-error-icon.svg

<svg width="19" height="20" viewBox="0 0 19 20" fill="none" xmlns="http://www.w3.org/2000/svg">
<path fill-rule="evenodd" clip-rule="evenodd" d="M10.0079 4.14127C9.68455 3.99751 9.31544 3.99751 8.99212 4.14127C8.88404 4.18933 8.71857 4.31519 8.43957 4.70909C8.16276 5.09989 7.84168 5.65299 7.3797 6.45095L4.2216 11.9058C3.75799 12.7066 3.43698 13.2626 3.23518 13.6988C3.03172 14.1386 3.00503 14.3453 3.0173 14.463C3.05405 14.8156 3.23877 15.1359 3.52546 15.3444C3.62116 15.414 3.81344 15.4945 4.296 15.5387C4.7746 15.5826 5.41658 15.5834 6.3419 15.5834H12.6581C13.5834 15.5834 14.2254 15.5826 14.704 15.5387C15.1866 15.4945 15.3788 15.414 15.4745 15.3444C15.7612 15.1359 15.9459 14.8156 15.9827 14.463C15.995 14.3453 15.9683 14.1386 15.7648 13.6988C15.563 13.2626 15.242 12.7066 14.7784 11.9058L11.6203 6.45094C11.1583 5.65299 10.8372 5.09989 10.5604 4.70909C10.2814 4.31519 10.116 4.18933 10.0079 4.14127ZM8.38267 2.77066C9.09398 2.45438 9.90601 2.45438 10.6173 2.77066C11.1023 2.98631 11.4606 3.38488 11.7845 3.84208C12.1059 4.29582 12.461 4.90926 12.8994 5.66649L12.9184 5.69939L16.0765 11.1543L16.0956 11.1873L16.0956 11.1873C16.5356 11.9473 16.892 12.5628 17.1262 13.069C17.3621 13.5789 17.5298 14.0895 17.4746 14.6185C17.3937 15.3942 16.9874 16.099 16.3566 16.5576C15.9264 16.8704 15.4005 16.9811 14.841 17.0325C14.2856 17.0834 13.5744 17.0834 12.6962 17.0834H12.6581H6.3419H6.30384C5.42563 17.0834 4.71436 17.0834 4.15896 17.0325C3.59951 16.9811 3.07357 16.8704 2.64335 16.5576C2.01262 16.099 1.60625 15.3942 1.52538 14.6185C1.47023 14.0895 1.63793 13.5789 1.87381 13.069C2.10798 12.5628 2.46435 11.9473 2.90435 11.1873L2.90436 11.1873L2.90438 11.1872L2.92346 11.1543L6.08156 5.69939L6.10062 5.66648L6.10064 5.66645L6.10064 5.66643C6.53901 4.90923 6.89414 4.29581 7.21552 3.84208C7.53936 3.38488 7.8977 2.98631 8.38267 2.77066ZM9.49999 6.87505C9.91421 6.87505 10.25 7.21084 10.25 7.62505V10.7917C10.25 11.2059 9.91421 11.5417 9.49999 11.5417C9.08578 11.5417 8.74999 11.2059 8.74999 10.7917V7.62505C8.74999 7.21084 9.08578 6.87505 9.49999 6.87505ZM9.5 13.9584C9.93722 13.9584 10.2917 13.6039 10.2917 13.1667C10.2917 12.7295 9.93722 12.3751 9.5 12.3751C9.06277 12.3751 8.70833 12.7295 8.70833 13.1667C8.70833 13.6039 9.06277 13.9584 9.5 13.9584Z" fill="#F2994A"/>
</svg>

<svg width="19" height="20" fill="none" xmlns="http://www.w3.org/2000/svg"><path fill-rule="evenodd" clip-rule="evenodd" d="M10.008 4.141a1.25 1.25 0 0 0-1.016 0c-.108.048-.273.174-.552.568-.277.39-.598.944-1.06 1.742l-3.158 5.455c-.464.8-.785 1.357-.987 1.793-.203.44-.23.646-.218.764.037.353.222.673.508.881.096.07.288.15.771.195.479.044 1.12.044 2.046.044h6.316c.925 0 1.567 0 2.046-.044.483-.044.675-.125.77-.195a1.25 1.25 0 0 0 .509-.881c.012-.118-.015-.324-.218-.764-.202-.436-.523-.992-.987-1.793L11.62 6.45c-.462-.798-.783-1.351-1.06-1.742-.279-.394-.444-.52-.552-.568Zm-1.625-1.37a2.75 2.75 0 0 1 2.234 0c.485.215.844.614 1.167 1.071.322.454.677 1.067 1.115 1.824l.02.033 3.157 5.455.02.033c.44.76.796 1.376 1.03 1.882.236.51.404 1.02.349 1.55a2.75 2.75 0 0 1-1.118 1.939c-.43.312-.957.423-1.516.474-.555.051-1.267.051-2.145.051H6.304c-.878 0-1.59 0-2.145-.05-.56-.052-1.085-.163-1.516-.475a2.75 2.75 0 0 1-1.118-1.94c-.055-.529.113-1.04.349-1.549.234-.506.59-1.122 1.03-1.882l.02-.033L6.081 5.7l.019-.033c.438-.757.793-1.37 1.115-1.824.323-.457.682-.856 1.167-1.071ZM9.5 6.875a.75.75 0 0 1 .75.75v3.167a.75.75 0 0 1-1.5 0V7.625a.75.75 0 0 1 .75-.75Zm0 7.083a.792.792 0 1 0 0-1.583.792.792 0 0 0 0 1.583Z" fill="#F2994A"/></svg>
